X: 200
T: A French Dance
R: jig
M: 6/8
K: Dmajor
|:A|AFA dfa|agf e2g|fdf gfe|cee e2A|
AFA dfa|agf e2g|fdf gec|d3 d3:|
|:A|AFA Adc|BAG F2D|FAD FAD|E3 E2A|
AFA Adc|BAG F2D|fad egc|d3 d2:|

